X:152
%%etbk:tnset id:52,pos:6,rep:3x,ant:
%%etbk:tnset id:182,pos:8,rep:3x-STOP,ant:
%%etbk:wsite http://www.thesession.org/tunes/display/7671
%%etbk:pldat 2016-06-23T18:39,2016-06-22T15:36,2016-06-16T18:14,2016-05-04T15:53,2016-03-11T15:31,2016-03-09T15:44,2016-03-08T16:16,2016-03-05T13:38,2016-02-26T17:19,2016-02-13T16:09,2015-11-02T18:16,2015-10-29T18:10,2015-10-27T15:50,2015-10-24T13:10,2015-10-19T18:12,2015-10-07T15:53,2015-10-01T18:37,2015-06-24T18:58,2015-06-21T15:53,2015-06-16T17:09,2015-03-13T18:42,2015-03-11T16:53,2015-03-06T16:42,2015-02-18T17:59,2015-02-09T19:37,2015-02-03T15:27,2015-02-02T19:34,2014-11-19T16:35,2014-11-06T18:50,2014-11-05T18:44,2014-11-04T15:48,2014-11-02T14:17,2014-10-29T15:24,2014-10-27T18:36,2014-10-19T15:03,2014-10-10T16:05,2014-08-21T19:30,2014-08-19T18:05,2014-08-05T17:48,2014-06-23T18:06,2014-06-11T16:12,2014-06-05T18:01,2014-06-03T15:15,2014-05-28T16:38,2014-03-06T18:07,2014-03-04T19:14,2014-03-03T18:48,2014-03-02T16:30,2014-03-01T15:42,2014-02-26T16:27,2014-02-24T18:14,2014-02-20T18:34,2014-02-19T16:12,2013-10-30T17:37,2013-10-29T17:09,2013-10-27T14:06,2013-10-17T18:57,2013-10-14T18:19,2013-10-11T18:31,2013-10-07T17:49
Z: Piano Box Version by Martin Fleischmann
H: Created 2013-02-19 /  Last Modified 2014-02-19
T: Derry, The
M: 4/4
L: 1/8
R: reel
K: Amaj
|:"A"!3!c3B !1!ABcA | "E"!2!B2cB !1!A!2!F!1!E!2!F | "A"!1!A2!2!c!3!e !5!aA!4!gA | "E"!3!f!5!a!1!e!3!c !2!BccB |
"A"!3!c3B !1!ABcA | "E"!2!B2cB !1!A!2!F!1!E!2!F |1 "A"!1!A2!2!c!3!e !4!fA!3!eA | "E"!2!BccB "A"!1!A4:|2 "A"!1!A2!2!c!3!e !4!fe!2!c!3!e | !4!fA!4!gA !5!a2ag |
||: "f#m"!3!f2!2!fe fgaf | "E"!3!g!1!eee !3!geag | "f#m"!2!f3e fgaf | !3!gfef !2!f3g |
"A"!4!a!1!e!3!cB !1!ABcA | "E"!2!B2cB !1!A!2!F!1!E!2!F |1 "A"!1!A2!2!c!3!e !4!fe!2!c!3!e | "A"!4!fA!4!gA !5!a2ag:|2 !1!A2!2!c!3!e !4!fA!3!eA | "E"!2!BccB "A"!1!A4||


